Newaita/actions/scalable/edit-table-insert-row-above.svg

<?xml version="1.0" encoding="UTF-8"?>
<svg xmlns="http://www.w3.org/2000/svg" xmlns:xlink="http://www.w3.org/1999/xlink" width="512pt" height="512pt" viewBox="0 0 512 512" version="1.1">
<g id="surface1">
<path style=" stroke:none;fill-rule:nonzero;fill:rgb(25.882354%,25.882354%,25.882354%);fill-opacity:1;" d="M 21.167969 459.128906 C 21.167969 470.855469 30.609375 480.296875 42.335938 480.296875 L 455.128906 480.296875 C 466.855469 480.296875 476.296875 470.855469 476.296875 459.128906 L 476.296875 56.921875 C 476.296875 56.90625 476.296875 56.894531 476.296875 56.878906 L 476.296875 205.101562 L 444.542969 205.101562 L 444.542969 310.945312 L 338.699219 310.945312 L 338.699219 205.101562 L 306.945312 205.101562 L 306.945312 310.945312 L 201.101562 310.945312 L 201.101562 205.101562 L 169.347656 205.101562 L 169.347656 310.945312 L 52.921875 310.945312 L 52.921875 35.753906 L 42.335938 35.753906 C 30.609375 35.753906 21.167969 45.195312 21.167969 56.921875 Z M 52.921875 437.957031 L 52.921875 342.699219 L 169.347656 342.699219 L 169.347656 448.542969 L 63.503906 448.542969 C 57.640625 448.542969 52.921875 443.820312 52.921875 437.957031 Z M 201.101562 448.542969 L 201.101562 342.699219 L 306.945312 342.699219 L 306.945312 448.542969 Z M 338.699219 448.542969 L 338.699219 342.699219 L 444.542969 342.699219 L 444.542969 437.957031 C 444.542969 443.820312 439.820312 448.542969 433.957031 448.542969 Z M 338.699219 448.542969 "/>
<path style=" stroke:none;fill-rule:nonzero;fill:rgb(100%,43.921569%,26.274511%);fill-opacity:1;" d="M 52.921875 205.101562 L 254.023438 205.101562 L 254.023438 173.351562 L 203.671875 173.351562 L 97.828125 67.507812 L 168.066406 67.507812 L 254.023438 153.464844 L 254.023438 108.558594 L 212.972656 67.507812 L 254.023438 67.507812 L 254.023438 35.753906 L 52.921875 35.753906 L 52.921875 67.507812 L 158.765625 173.351562 L 52.921875 173.351562 Z M 52.921875 205.101562 "/>
<path style=" stroke:none;fill-rule:nonzero;fill:rgb(40.000001%,73.333335%,41.568628%);fill-opacity:1;" d="M 306.945312 120.429688 C 306.945312 129.222656 314.027344 136.304688 322.820312 136.304688 L 375.742188 136.304688 L 375.742188 189.226562 C 375.742188 198.023438 382.824219 205.101562 391.621094 205.101562 C 400.417969 205.101562 407.496094 198.023438 407.496094 189.226562 L 407.496094 136.304688 L 460.417969 136.304688 C 469.214844 136.304688 476.296875 129.222656 476.296875 120.429688 C 476.296875 111.632812 469.214844 104.550781 460.417969 104.550781 L 407.496094 104.550781 L 407.496094 51.628906 C 407.496094 42.835938 400.417969 35.753906 391.621094 35.753906 C 382.824219 35.753906 375.742188 42.835938 375.742188 51.628906 L 375.742188 104.550781 L 322.820312 104.550781 C 314.027344 104.550781 306.945312 111.632812 306.945312 120.429688 Z M 306.945312 120.429688 "/>
</g>
</svg>

<svg xmlns="http://www.w3.org/2000/svg" width="512pt" height="512pt" viewBox="0 0 512 512"><path d="M21.168 459.129a21.122 21.122 0 0 0 21.168 21.168h412.793a21.122 21.122 0 0 0 21.168-21.168V56.922v-.043 148.223h-31.754v105.843H338.699V205.102h-31.754v105.843H201.102V205.102h-31.754v105.843H52.922V35.754H42.336a21.122 21.122 0 0 0-21.168 21.168zm31.754-21.172v-95.258h116.426v105.844H63.504a10.561 10.561 0 0 1-10.582-10.586zm148.18 10.586V342.699h105.843v105.844zm137.597 0V342.699h105.844v95.258a10.564 10.564 0 0 1-10.586 10.586zm0 0" fill="#424242"/><path d="M52.922 205.102h201.101v-31.75h-50.351L97.828 67.508h70.238l85.957 85.957v-44.906l-41.05-41.051h41.05V35.754H52.922v31.754l105.844 105.844H52.922zm0 0" fill="#ff7043"/><path d="M306.945 120.43a15.843 15.843 0 0 0 15.875 15.875h52.922v52.922a15.84 15.84 0 0 0 15.88 15.875 15.838 15.838 0 0 0 15.874-15.875v-52.922h52.922a15.843 15.843 0 0 0 15.879-15.875 15.844 15.844 0 0 0-15.879-15.88h-52.922V51.63a15.84 15.84 0 0 0-15.875-15.875 15.843 15.843 0 0 0-15.879 15.875v52.922H322.82a15.843 15.843 0 0 0-15.875 15.879zm0 0" fill="#66bb6a"/></svg>
